packages/core/src/svgs/tokens/branded/CROWD.svg

<svg width="24" height="24" viewBox="0 0 24 24" fill="none" xmlns="http://www.w3.org/2000/svg">
<path d="M11.1126 13.386C10.5473 13.2159 9.94691 13.6112 9.52158 14.0265C8.81108 14.7169 7.55519 15.0021 6.48946 15.0021C5.95749 15.0027 5.43492 14.8619 4.97524 14.5942C4.51556 14.3265 4.13527 13.9414 3.8733 13.4785C3.61134 13.0154 3.4771 12.4911 3.48433 11.9592C3.49156 11.4273 3.64 10.9068 3.91446 10.4512C4.18891 9.9955 4.57952 9.62088 5.04631 9.36575C5.5131 9.11061 6.0393 8.98409 6.57105 8.99914C7.10281 9.01418 7.62102 9.17025 8.07264 9.45136C8.52425 9.73247 8.89306 10.1286 9.1413 10.5991C9.35833 10.1097 9.72661 9.70282 10.1921 9.43824C9.75078 8.80322 9.15328 8.2927 8.4572 7.95591C7.76112 7.61914 6.98997 7.46749 6.2182 7.51562C5.44643 7.56374 4.70009 7.81001 4.05125 8.23067C3.4024 8.65131 2.87294 9.23212 2.51399 9.91705C2.15505 10.6019 1.97872 11.3678 2.00205 12.1408C2.02537 12.9136 2.24757 13.6675 2.64716 14.3296C3.04677 14.9915 3.61028 15.5394 4.28332 15.9201C4.95635 16.3009 5.71619 16.5017 6.48946 16.5032C8.63596 16.5032 11.0426 15.5124 11.493 13.5011L11.1126 13.386Z" fill="url(#paint0_linear_364_5053)"/>
<path d="M13.0436 13.3509L13.4939 13.5011L13.8993 13.5811C13.6478 13.4149 13.3495 13.3341 13.0486 13.3509H13.0436ZM14.5247 14.0814C14.2344 14.3116 13.6891 14.4817 12.9236 14.4967C13.8141 15.8377 15.7405 16.5031 17.4967 16.5031C18.0881 16.5031 18.6737 16.3866 19.2201 16.1603C19.7663 15.9341 20.2629 15.6023 20.6809 15.1842C21.0991 14.766 21.4308 14.2696 21.6571 13.7232C21.8834 13.177 22 12.5914 22 12C22 11.4086 21.8834 10.8231 21.6571 10.2767C21.4308 9.73032 21.0991 9.23392 20.6809 8.81577C20.2629 8.39761 19.7663 8.06592 19.2201 7.83961C18.6737 7.61331 18.0881 7.49683 17.4967 7.49683C15.9607 7.49683 14.0543 8.82276 13.2438 9.9986C12.9936 10.7491 13.4939 11.2494 13.7441 11.4996C14.2445 10.549 16.3459 8.99788 17.4967 8.99788C18.293 8.99788 19.0565 9.31417 19.6196 9.87718C20.1825 10.4401 20.4988 11.2038 20.4988 12C20.4988 12.7962 20.1825 13.5598 19.6196 14.1227C19.0565 14.6858 18.293 15.0021 17.4967 15.0021C16.4611 15.0021 15.2451 14.7319 14.5247 14.0814Z" fill="url(#paint1_linear_364_5053)"/>
<path d="M10.4922 12C11.0448 12 11.4929 11.5519 11.4929 10.9992C11.4929 10.4466 11.0448 9.9986 10.4922 9.9986C9.93947 9.9986 9.49146 10.4466 9.49146 10.9992C9.49146 11.5519 9.93947 12 10.4922 12Z" fill="#0B9ED9"/>
<path d="M13.4943 14.0015C14.047 14.0015 14.4951 13.5534 14.4951 13.0007C14.4951 12.448 14.047 12.0001 13.4943 12.0001C12.9417 12.0001 12.4937 12.448 12.4937 13.0007C12.4937 13.5534 12.9417 14.0015 13.4943 14.0015Z" fill="#0B9ED9"/>
<defs>
<linearGradient id="paint0_linear_364_5053" x1="4.07947" y1="10.2418" x2="12.7039" y2="20.527" gradientUnits="userSpaceOnUse">
<stop stop-color="#1CD875"/>
<stop offset="1" stop-color="#17C693"/>
</linearGradient>
<linearGradient id="paint1_linear_364_5053" x1="6.10109" y1="9.74841" x2="10.7252" y2="18.9987" gradientUnits="userSpaceOnUse">
<stop stop-color="#16C399"/>
<stop offset="1" stop-color="#0FADBE"/>
</linearGradient>
</defs>
</svg>

<svg xmlns="http://www.w3.org/2000/svg" width="24" height="24" fill="none" viewBox="0 0 24 24">
    <path fill="url(#CROWD__a)" d="M11.113 13.386c-.566-.17-1.166.225-1.591.64-.71.69-1.967.976-3.033.976A3.002 3.002 0 1 1 9.141 10.6c.217-.49.586-.896 1.051-1.16a4.499 4.499 0 1 0-3.703 7.064c2.147 0 4.554-.99 5.004-3.002z"/>
    <path fill="url(#CROWD__b)" d="m13.044 13.35.45.151.405.08a1.4 1.4 0 0 0-.85-.23zm1.48.731c-.29.23-.835.4-1.6.416.89 1.34 2.817 2.006 4.573 2.006a4.504 4.504 0 0 0 0-9.006c-1.536 0-3.443 1.326-4.253 2.502-.25.75.25 1.25.5 1.5.5-.95 2.602-2.501 3.753-2.501a3.002 3.002 0 1 1 0 6.004c-1.036 0-2.252-.27-2.972-.92"/>
    <path fill="#0B9ED9" d="M10.492 12a1 1 0 1 0 0-2.002 1 1 0 0 0 0 2.002m3.002 2.002a1 1 0 1 0 0-2.002 1 1 0 0 0 0 2.002"/>
    <defs>
        <linearGradient id="CROWD__a" x1="4.079" x2="12.704" y1="10.242" y2="20.527" gradientUnits="userSpaceOnUse">
            <stop stop-color="#1CD875"/>
            <stop offset="1" stop-color="#17C693"/>
        </linearGradient>
        <linearGradient id="CROWD__b" x1="6.101" x2="10.725" y1="9.748" y2="18.999" gradientUnits="userSpaceOnUse">
            <stop stop-color="#16C399"/>
            <stop offset="1" stop-color="#0FADBE"/>
        </linearGradient>
    </defs>
</svg>
